Simply-Purple-Circles/scalable/apps/gnome-mines.svg

<svg xmlns="http://www.w3.org/2000/svg" width="48" height="48" viewBox="0 0 12.7 12.7"><path fill="#963996" d="M6.344.077A6.267 6.267 0 0 0 .076 6.344a6.267 6.267 0 0 0 6.268 6.267 6.267 6.267 0 0 0 6.267-6.267A6.267 6.267 0 0 0 6.344.077zm-.018.932a5.388 5.388 0 0 1 5.388 5.39 5.388 5.388 0 0 1-5.388 5.387A5.388 5.388 0 0 1 .937 6.398a5.388 5.388 0 0 1 5.39-5.389zm-.43 1.108l-.09 1.26a3.024 3.024 0 0 0-1.172.488l-.956-.83-.643.643.827.953a3.024 3.024 0 0 0-.484 1.175l-1.261.09v.907l1.26.09a3.024 3.024 0 0 0 .488 1.173l-.83.956.643.642.953-.827a3.024 3.024 0 0 0 1.175.484l.09 1.262h.908l.09-1.26a3.024 3.024 0 0 0 1.172-.488l.956.829.643-.642-.827-.954a3.024 3.024 0 0 0 .484-1.174l1.261-.09v-.907l-1.26-.09a3.024 3.024 0 0 0-.488-1.173l.83-.956-.643-.643-.953.827a3.024 3.024 0 0 0-1.175-.484l-.09-1.261h-.908zm-.12 2.275A1.058 1.058 0 0 1 6.834 5.45 1.058 1.058 0 0 1 5.776 6.51 1.058 1.058 0 0 1 4.718 5.45a1.058 1.058 0 0 1 1.058-1.058z"/></svg>

<?xml version="1.0" encoding="UTF-8" standalone="no"?>
<svg
   xmlns:dc="http://purl.org/dc/elements/1.1/"
   xmlns:cc="http://creativecommons.org/ns#"
   xmlns:rdf="http://www.w3.org/1999/02/22-rdf-syntax-ns#"
   xmlns:svg="http://www.w3.org/2000/svg"
   xmlns="http://www.w3.org/2000/svg"
   xmlns:sodipodi="http://sodipodi.sourceforge.net/DTD/sodipodi-0.dtd"
   xmlns:inkscape="http://www.inkscape.org/namespaces/inkscape"
   width="48"
   height="48"
   viewBox="0 0 12.7 12.7"
   version="1.1"
   id="svg4"
   sodipodi:docname="gnome-mines.svg"
   inkscape:version="0.92.4 (5da689c313, 2019-01-14)">
  <metadata
     id="metadata10">
    <rdf:RDF>
      <cc:Work
         rdf:about="">
        <dc:format>image/svg+xml</dc:format>
        <dc:type
           rdf:resource="http://purl.org/dc/dcmitype/StillImage" />
        <dc:title></dc:title>
      </cc:Work>
    </rdf:RDF>
  </metadata>
  <defs
     id="defs8" />
  <sodipodi:namedview
     pagecolor="#ffffff"
     bordercolor="#666666"
     borderopacity="1"
     objecttolerance="10"
     gridtolerance="10"
     guidetolerance="10"
     inkscape:pageopacity="0"
     inkscape:pageshadow="2"
     inkscape:window-width="1087"
     inkscape:window-height="480"
     id="namedview6"
     showgrid="false"
     inkscape:zoom="4.9166667"
     inkscape:cx="2.1355932"
     inkscape:cy="24"
     inkscape:window-x="0"
     inkscape:window-y="25"
     inkscape:window-maximized="0"
     inkscape:current-layer="svg4" />
  <path
     d="M 6.344,0.077 A 6.267,6.267 0 0 0 0.076,6.344 6.267,6.267 0 0 0 6.344,12.611 6.267,6.267 0 0 0 12.611,6.344 6.267,6.267 0 0 0 6.344,0.077 Z M 6.326,1.009 a 5.388,5.388 0 0 1 5.388,5.39 5.388,5.388 0 0 1 -5.388,5.387 5.388,5.388 0 0 1 -5.389,-5.388 5.388,5.388 0 0 1 5.39,-5.389 z m -0.43,1.108 -0.09,1.26 A 3.024,3.024 0 0 0 4.634,3.865 L 3.678,3.035 3.035,3.678 3.862,4.631 A 3.024,3.024 0 0 0 3.378,5.806 l -1.261,0.09 v 0.907 l 1.26,0.09 A 3.024,3.024 0 0 0 3.865,8.066 L 3.035,9.022 3.678,9.664 4.631,8.837 a 3.024,3.024 0 0 0 1.175,0.484 l 0.09,1.262 h 0.908 l 0.09,-1.26 A 3.024,3.024 0 0 0 8.066,8.835 L 9.022,9.664 9.665,9.022 8.838,8.068 A 3.024,3.024 0 0 0 9.322,6.894 l 1.261,-0.09 V 5.897 L 9.323,5.807 A 3.024,3.024 0 0 0 8.835,4.634 L 9.665,3.678 9.022,3.035 8.069,3.862 A 3.024,3.024 0 0 0 6.894,3.378 L 6.804,2.117 Z M 5.776,4.392 A 1.058,1.058 0 0 1 6.834,5.45 1.058,1.058 0 0 1 5.776,6.51 1.058,1.058 0 0 1 4.718,5.45 1.058,1.058 0 0 1 5.776,4.392 Z"
     id="path2"
     inkscape:connector-curvature="0"
     style="fill:#963996" />
</svg>
